X: 29912
T: O'Rourke's Feast
R: waltz
M: 3/4
K: Gmajor
D|GG/A/B/c/ dBG|ccc c/d/ec|dBd e/f/ge|f/g/af g2 d|
gab abg|fge dcB|cAd BGd|eee f2 d|
g>gg gBd|gfg afd|e>ee e/f/ge|dBG G2|
D|DGG G2 D|GG/A/B/c/ dBG|EAA A2 E|AA/B/c/d/ ecA|
d>dd dec|B>BB BcA|G>GG G2 A|GFE D2 D|
DEF GBD|GFG AFD|d2 c B/c/dG|F/G/AD G2||

